brandFactory_export/3.Masa/Libra_3Masa.svg

<?xml version="1.0" encoding="UTF-8"?>
<svg width="24px" height="24px" viewBox="0 0 24 24" version="1.1" xmlns="http://www.w3.org/2000/svg" xmlns:xlink="http://www.w3.org/1999/xlink">
    <title>3.Masa/Libra_3Masa</title>
    <g id="Symbols" stroke="none" stroke-width="1" fill="none" fill-rule="evenodd">
        <g id="3.Masa/Libra_3Masa" fill="#5CB615" fill-rule="nonzero">
            <path d="M11.8084034,0 C19.5361345,0 23.6235294,4.08403361 23.6235294,11.8151261 C23.6235294,19.5394958 19.5394958,23.6235294 11.8084034,23.6235294 C4.08067227,23.6235294 0,19.5394958 0,11.8151261 C0,4.08403361 4.08403361,0 11.8084034,0 Z M15.2201681,17.2638655 L9.56638655,17.2638655 C10.5478992,16.2184874 10.9042017,15.3109244 10.9042017,14.0369748 C10.9042017,13.4386555 10.8235294,12.8168067 10.6655462,12.1882353 L13.1966387,12.1882353 C13.4655462,12.1882353 13.6806723,11.9731092 13.6806723,11.7042017 L13.6806723,11.2268908 C13.6806723,10.9613445 13.4655462,10.7428571 13.1966387,10.7428571 L10.2184874,10.7428571 C10.0134454,10.0571429 9.82857143,9.28067227 9.82857143,8.51092437 C9.82857143,6.76302521 10.7462185,5.94957983 12.712605,5.94957983 C13.3411765,5.94957983 14.1378151,6.03697479 14.9579832,6.19159664 C15.0957983,6.21848739 15.2436975,6.18151261 15.3546218,6.08739496 C15.4655462,5.99663866 15.5294118,5.85882353 15.5294118,5.71428571 L15.5294118,5.27731092 C15.5294118,5.06554622 15.3915966,4.87731092 15.189916,4.81344538 C14.3159664,4.54453782 13.2067227,4.44705882 12.5210084,4.44705882 C9.81848739,4.44705882 8.27226891,5.93277311 8.27226891,8.52773109 C8.27226891,9.37815126 8.44369748,10.1915966 8.63529412,10.8436975 L7.84201681,10.897479 C7.58991597,10.9142857 7.39159664,11.1260504 7.39159664,11.3815126 L7.39159664,11.707563 C7.39159664,11.9764706 7.60672269,12.1915966 7.87563025,12.1915966 L9.07226891,12.1915966 C9.27394958,12.8672269 9.36470588,13.4453782 9.36470588,14.0235294 C9.36470588,14.9176471 9.15966387,15.6336134 8.11764706,16.6420168 C7.55966387,17.1764706 7.28067227,17.4487395 7.28067227,17.9831933 C7.28067227,18.1747899 7.31764706,18.3462185 7.39159664,18.4907563 C7.47226891,18.6521008 7.64033613,18.7529412 7.82184874,18.7529412 L15.2235294,18.7529412 C15.4890756,18.7529412 15.707563,18.5378151 15.707563,18.2689076 L15.707563,17.7512605 C15.7042017,17.4789916 15.4857143,17.2638655 15.2201681,17.2638655 L15.2201681,17.2638655 Z" id="Libra_3Masa"></path>
        </g>
    </g>
</svg>

<svg width="24" height="24" viewBox="0 0 24 24" xmlns="http://www.w3.org/2000/svg"><path d="M11.808 0c7.728 0 11.816 4.084 11.816 11.815 0 7.724-4.085 11.809-11.816 11.809C4.081 23.624 0 19.539 0 11.815 0 4.084 4.084 0 11.808 0zm3.412 17.264H9.566c.982-1.046 1.338-1.953 1.338-3.227 0-.598-.08-1.22-.238-1.849h2.53a.482.482 0 00.485-.484v-.477a.484.484 0 00-.484-.484h-2.979c-.205-.686-.39-1.462-.39-2.232 0-1.748.918-2.561 2.885-2.561.628 0 1.425.087 2.245.242a.482.482 0 00.571-.477v-.438c0-.211-.137-.4-.34-.464-.873-.268-1.982-.366-2.668-.366-2.703 0-4.249 1.486-4.249 4.08 0 .851.172 1.665.363 2.317l-.793.053a.485.485 0 00-.45.485v.326c0 .268.215.484.484.484h1.196c.202.675.293 1.253.293 1.832 0 .894-.205 1.61-1.247 2.618-.558.534-.837.807-.837 1.341 0 .192.037.363.11.508a.48.48 0 00.43.262h7.403a.484.484 0 00.484-.484v-.518a.49.49 0 00-.488-.487z" fill="#5CB615" fill-rule="nonzero"/></svg>
